X:33
T:Brian O'Lynn
R:Jig
C:Trad
M:6/8
L:1/8
K:G
B |: cAd cAG |~E3 GAB | cAd cAG | EAA A2 B |
  | cAd cAG | ~E3 GAB | cde fed|1cAA A2 B :|2cAA A2 f |
  |: ~g3 ged | cAB c2 d | e2 a age | ed^c def |
  | ~g3 ged | cAB cde | fed cAG |1EAA A2f :|2EAA A2B |
